odm/etc/static_lut_bt2020_to_sRGB_mm.cube
LUT_3D_SIZE 33
0.0000000000 0.0000000000 0.0000000000
0.0039100684 0.0000000000 0.0000000000
0.0156402737 0.0000000000 0.0000000000
0.0351906158 0.0000000000 0.0000000000
0.0596285425 0.0000000000 0.0000000000
0.0840664729 0.0000000000 0.0000000000
0.1075268835 0.0000000000 0.0000000000
0.1309872866 0.0000000000 0.0000000000
0.1544477046 0.0000000000 0.0000000000
0.1769305915 0.0000000000 0.0000000000
0.1994134933 0.0000000000 0.0000000000
0.2209188640 0.0000000000 0.0000000000
0.2434017658 0.0000000000 0.0000000000
0.2649071217 0.0000000000 0.0000000000
0.2854349911 0.0000000000 0.0000000000
0.3069403768 0.0000000000 0.0000000000
0.3274682164 0.0000000000 0.0000000000
0.3489736021 0.0000000000 0.0000000000
0.3724340200 0.0000000000 0.0000000000
0.3988269866 0.0000000000 0.0000000000
0.4271749854 0.0000000000 0.0000000000
0.4584555328 0.0000000000 0.0000000000
0.4916911125 0.0000000000 0.0000000000
0.5268816948 0.0000000000 0.0000000000
0.5630498528 0.0000000000 0.0000000000
0.6021505594 0.0000000000 0.0000000000
0.6432062387 0.0000000000 0.0000000000
0.6862170100 0.0000000000 0.0000000000
0.7311828136 0.0000000000 0.0000000000
0.7781035900 0.0000000000 0.0000000000
0.8269794583 0.0000000000 0.0097751711
0.8778103590 0.0000000000 0.0234604105
0.9315738082 0.0000000000 0.0381231681
0.0000000000 0.0019550342 0.0000000000
0.0019550342 0.0019550342 0.0000000000
0.0136852395 0.0009775171 0.0000000000
0.0342130996 0.0000000000 0.0000000000
0.0586510263 0.0000000000 0.0000000000
0.0840664729 0.0000000000 0.0000000000
0.1075268835 0.0000000000 0.0000000000
0.1319648027 0.0000000000 0.0000000000
0.1544477046 0.0000000000 0.0000000000
0.1779081076 0.0000000000 0.0000000000
0.2003910094 0.0000000000 0.0000000000
0.2228738964 0.0000000000 0.0000000000
0.2443792820 0.0000000000 0.0000000000
0.2658846676 0.0000000000 0.0000000000
0.2873900235 0.0000000000 0.0000000000
0.3079178929 0.0000000000 0.0000000000
0.3284457624 0.0000000000 0.0000000000
0.3499511182 0.0000000000 0.0000000000
0.3743890524 0.0000000000 0.0000000000
0.4007820189 0.0000000000 0.0000000000
0.4291300178 0.0000000000 0.0000000000
0.4604105651 0.0000000000 0.0000000000
0.4926686287 0.0000000000 0.0000000000
0.5278592110 0.0000000000 0.0000000000
0.5650048852 0.0000000000 0.0000000000
0.6041055918 0.0000000000 0.0000000000
0.6451612711 0.0000000000 0.0000000000
0.6871945262 0.0000000000 0.0000000000
0.7321603298 0.0000000000 0.0000000000
0.7790811062 0.0000000000 0.0000000000
0.8279569745 0.0000000000 0.0087976540
0.8787878752 0.0000000000 0.0224828944
0.9325513244 0.0000000000 0.0371456519
0.0000000000 0.0097751711 0.0000000000
0.0000000000 0.0097751711 0.0000000000
0.0097751711 0.0087976540 0.0000000000
0.0303030312 0.0068426197 0.0000000000
0.0566959940 0.0039100684 0.0000000000
0.0830889568 0.0009775171 0.0000000000
0.1085043997 0.0000000000 0.0000000000
0.1329423338 0.0000000000 0.0000000000
0.1564027369 0.0000000000 0.0000000000
0.1798631549 0.0000000000 0.0000000000
0.2023460418 0.0000000000 0.0000000000
0.2248289287 0.0000000000 0.0000000000
0.2473118305 0.0000000000 0.0000000000
0.2688172162 0.0000000000 0.0000000000
0.2903225720 0.0000000000 0.0000000000
0.3118279576 0.0000000000 0.0000000000
0.3323558271 0.0000000000 0.0000000000
0.3538611829 0.0000000000 0.0000000000
0.3782991171 0.0000000000 0.0000000000
0.4046920836 0.0000000000 0.0000000000
0.4330400825 0.0000000000 0.0000000000
0.4643206298 0.0000000000 0.0000000000
0.4965786934 0.0000000000 0.0000000000
0.5317693353 0.0000000000 0.0000000000
0.5689149499 0.0000000000 0.0000000000
0.6080156565 0.0000000000 0.0000000000
0.6480938196 0.0000000000 0.0000000000
0.6911045909 0.0000000000 0.0000000000
0.7360703945 0.0000000000 0.0000000000
0.7829912305 0.0000000000 0.0000000000
0.8308895230 0.0000000000 0.0058651026
0.8817204237 0.0000000000 0.0185728259
0.9354838729 0.0000000000 0.0342130996
0.0000000000 0.0244379286 0.0000000000
0.0000000000 0.0234604105 0.0000000000
0.0019550342 0.0224828944 0.0000000000
0.0224828944 0.0215053763 0.0000000000
0.0518084057 0.0185728259 0.0000000000
0.0801564008 0.0156402737 0.0000000000
0.1075268835 0.0117302053 0.0000000000
0.1329423338 0.0068426197 0.0000000000
0.1573802531 0.0019550342 0.0000000000
0.1818181872 0.0000000000 0.0000000000
0.2052785903 0.0000000000 0.0000000000
0.2287390083 0.0000000000 0.0000000000
0.2512218952 0.0000000000 0.0000000000
0.2737047970 0.0000000000 0.0000000000
0.2952101529 0.0000000000 0.0000000000
0.3167155385 0.0000000000 0.0000000000
0.3382209241 0.0000000000 0.0000000000
0.3597263098 0.0000000000 0.0000000000
0.3841642141 0.0000000000 0.0000000000
0.4105571806 0.0000000000 0.0000000000
0.4389051795 0.0000000000 0.0000000000
0.4701857269 0.0000000000 0.0000000000
0.5034213066 0.0000000000 0.0000000000
0.5386119485 0.0000000000 0.0000000000
0.5747800469 0.0000000000 0.0000000000
0.6138807535 0.0000000000 0.0000000000
0.6539589167 0.0000000000 0.0000000000
0.6969696879 0.0000000000 0.0000000000
0.7409579754 0.0000000000 0.0000000000
0.7878788114 0.0000000000 0.0000000000
0.8357771039 0.0000000000 0.0000000000
0.8866080046 0.0000000000 0.0127077224
0.9403714538 0.0000000000 0.0283479970
0.0000000000 0.0449657887 0.0000000000
0.0000000000 0.0449657887 0.0000000000
0.0000000000 0.0439882688 0.0000000000
0.0117302053 0.0420332365 0.0000000000
0.0439882688 0.0400782004 0.0000000000
0.0752688199 0.0371456519 0.0000000000
0.1045943275 0.0332355835 0.0000000000
0.1309872866 0.0283479970 0.0000000000
0.1573802531 0.0234604105 0.0000000000
0.1827957034 0.0166177917 0.0000000000
0.2072336227 0.0097751711 0.0000000000
0.2316715568 0.0029325513 0.0000000000
0.2551319599 0.0000000000 0.0000000000
0.2776148617 0.0000000000 0.0000000000
0.3000977635 0.0000000000 0.0000000000
0.3216031194 0.0000000000 0.0000000000
0.3440860212 0.0000000000 0.0000000000
0.3665689230 0.0000000000 0.0000000000
0.3910068572 0.0000000000 0.0000000000
0.4173997939 0.0000000000 0.0000000000
0.4467253089 0.0000000000 0.0000000000
0.4780058563 0.0000000000 0.0000000000
0.5112414360 0.0000000000 0.0000000000
0.5464320779 0.0000000000 0.0000000000
0.5826001763 0.0000000000 0.0000000000
0.6217008829 0.0000000000 0.0000000000
0.6617791057 0.0000000000 0.0000000000
0.7047898173 0.0000000000 0.0000000000
0.7487781048 0.0000000000 0.0000000000
0.7947214246 0.0000000000 0.0000000000
0.8435972333 0.0000000000 0.0000000000
0.8934506178 0.0000000000 0.0048875855
0.9462365508 0.0000000000 0.0215053763
0.0000000000 0.0684261993 0.0000000000
0.0000000000 0.0684261993 0.0000000000
0.0000000000 0.0674486831 0.0000000000
0.0000000000 0.0664711669 0.0000000000
0.0293255132 0.0654936433 0.0000000000
0.0674486831 0.0625610948 0.0000000000
0.0987292305 0.0596285425 0.0000000000
0.1280547380 0.0566959940 0.0000000000
0.1554252207 0.0518084057 0.0000000000
0.1818181872 0.0459433049 0.0000000000
0.2082111388 0.0400782004 0.0000000000
0.2326490730 0.0312805474 0.0000000000
0.2570869923 0.0234604105 0.0000000000
0.2815249264 0.0136852395 0.0000000000
0.3040078282 0.0048875855 0.0000000000
0.3274682164 0.0000000000 0.0000000000
0.3499511182 0.0000000000 0.0000000000
0.3724340200 0.0000000000 0.0000000000
0.3978494704 0.0000000000 0.0000000000
0.4252199531 0.0000000000 0.0000000000
0.4545454681 0.0000000000 0.0000000000
0.4868035316 0.0000000000 0.0000000000
0.5200390816 0.0000000000 0.0000000000
0.5552297235 0.0000000000 0.0000000000
0.5923753381 0.0000000000 0.0000000000
0.6314760447 0.0000000000 0.0000000000
0.6715542674 0.0000000000 0.0000000000
0.7135874629 0.0000000000 0.0000000000
0.7575757504 0.0000000000 0.0000000000
0.8044965863 0.0000000000 0.0000000000
0.8523949385 0.0000000000 0.0000000000
0.9022482634 0.0000000000 0.0000000000
0.9540566802 0.0000000000 0.0117302053
0.0000000000 0.0909090936 0.0000000000
0.0000000000 0.0909090936 0.0000000000
0.0000000000 0.0909090936 0.0000000000
0.0000000000 0.0899315774 0.0000000000
0.0097751711 0.0889540538 0.0000000000
0.0527859256 0.0879765376 0.0000000000
0.0909090936 0.0860215053 0.0000000000
0.1221896410 0.0830889568 0.0000000000
0.1515151560 0.0801564008 0.0000000000
0.1798631549 0.0762463361 0.0000000000
0.2072336227 0.0713587478 0.0000000000
0.2326490730 0.0654936433 0.0000000000
0.2580645084 0.0586510263 0.0000000000
0.2834799588 0.0508308895 0.0000000000
0.3079178929 0.0410557203 0.0000000000
0.3313783109 0.0303030312 0.0000000000
0.3538611829 0.0195503421 0.0000000000
0.3782991171 0.0078201368 0.0000000000
0.4046920836 0.0000000000 0.0000000000
0.4330400825 0.0000000000 0.0000000000
0.4633431137 0.0000000000 0.0000000000
0.4956011772 0.0000000000 0.0000000000
0.5288367271 0.0000000000 0.0000000000
0.5650048852 0.0000000000 0.0000000000
0.6021505594 0.0000000000 0.0000000000
0.6412512064 0.0000000000 0.0000000000
0.6823069453 0.0000000000 0.0000000000
0.7243402004 0.0000000000 0.0000000000
0.7683284283 0.0000000000 0.0000000000
0.8142717481 0.0000000000 0.0000000000
0.8621701002 0.0000000000 0.0000000000
0.9120234847 0.0000000000 0.0000000000
0.9628543258 0.0000000000 0.0000000000
0.0000000000 0.1143695042 0.0000000000
0.0000000000 0.1143695042 0.0000000000
0.0000000000 0.1143695042 0.0000000000
0.0000000000 0.1133919880 0.0000000000
0.0000000000 0.1133919880 0.0000000000
0.0312805474 0.1114369482 0.0000000000
0.0782013685 0.1104594320 0.0000000000
0.1133919880 0.1085043997 0.0000000000
0.1456500441 0.1055718511 0.0000000000
0.1759530753 0.1026392952 0.0000000000
0.2043010741 0.0997067466 0.0000000000
0.2316715568 0.0948191583 0.0000000000
0.2580645084 0.0899315774 0.0000000000
0.2844574749 0.0840664729 0.0000000000
0.3088954091 0.0782013685 0.0000000000
0.3343108594 0.0703812316 0.0000000000
0.3577712476 0.0615835786 0.0000000000
0.3831866980 0.0518084057 0.0000000000
0.4095796645 0.0381231681 0.0000000000
0.4389051795 0.0205278601 0.0000000000
0.4701857269 0.0019550342 0.0000000000
0.5034213066 0.0000000000 0.0000000000
0.5376344323 0.0000000000 0.0000000000
0.5747800469 0.0000000000 0.0000000000
0.6119257212 0.0000000000 0.0000000000
0.6520038843 0.0000000000 0.0000000000
0.6930596232 0.0000000000 0.0000000000
0.7360703945 0.0000000000 0.0000000000
0.7800586224 0.0000000000 0.0000000000
0.8260019422 0.0000000000 0.0000000000
0.8729227781 0.0000000000 0.0000000000
0.9227761626 0.0000000000 0.0000000000
0.9745845795 0.0000000000 0.0000000000
0.0000000000 0.1378299147 0.0000000000
0.0000000000 0.1378299147 0.0000000000
0.0000000000 0.1378299147 0.0000000000
0.0000000000 0.1368523985 0.0000000000
0.0000000000 0.1368523985 0.0000000000
0.0019550342 0.1358748823 0.0000000000
0.0586510263 0.1348973662 0.0000000000
0.1016617790 0.1329423338 0.0000000000
0.1378299147 0.1309872866 0.0000000000
0.1700879782 0.1290322542 0.0000000000
0.2003910094 0.1260997057 0.0000000000
0.2287390083 0.1231671572 0.0000000000
0.2570869923 0.1192570850 0.0000000000
0.2834799588 0.1143695042 0.0000000000
0.3098729253 0.1094819158 0.0000000000
0.3352883756 0.1036168113 0.0000000000
0.3607038260 0.0977517143 0.0000000000
0.3861192465 0.0899315774 0.0000000000
0.4144672453 0.0801564008 0.0000000000
0.4437927604 0.0684261993 0.0000000000
0.4760508239 0.0518084057 0.0000000000
0.5102639198 0.0303030312 0.0000000000
0.5454545617 0.0058651026 0.0000000000
0.5835776925 0.0000000000 0.0000000000
0.6217008829 0.0000000000 0.0000000000
0.6627566218 0.0000000000 0.0000000000
0.7038123012 0.0000000000 0.0000000000
0.7478005886 0.0000000000 0.0000000000
0.7917888761 0.0000000000 0.0000000000
0.8377321362 0.0000000000 0.0000000000
0.8856304884 0.0000000000 0.0000000000
0.9345063567 0.0000000000 0.0000000000
0.9863147736 0.0000000000 0.0000000000
0.0000000000 0.1612903178 0.0000000000
0.0000000000 0.1612903178 0.0000000000
0.0000000000 0.1612903178 0.0000000000
0.0000000000 0.1603128016 0.0000000000
0.0000000000 0.1603128016 0.0000000000
0.0000000000 0.1593352854 0.0000000000
0.0273704790 0.1593352854 0.0000000000
0.0850439891 0.1573802531 0.0000000000
0.1260997057 0.1564027369 0.0000000000
0.1612903178 0.1544477046 0.0000000000
0.1935483813 0.1524926722 0.0000000000
0.2248289287 0.1495601237 0.0000000000
0.2531769276 0.1466275603 0.0000000000
0.2815249264 0.1427174956 0.0000000000
0.3088954091 0.1388074309 0.0000000000
0.3352883756 0.1339198500 0.0000000000
0.3616813421 0.1290322542 0.0000000000
0.3880742788 0.1231671572 0.0000000000
0.4173997939 0.1153470203 0.0000000000
0.4477028251 0.1055718511 0.0000000000
0.4809384048 0.0938416421 0.0000000000
0.5161290169 0.0801564008 0.0000000000
0.5532746911 0.0596285425 0.0000000000
0.5913978219 0.0322580636 0.0000000000
0.6314760447 0.0019550342 0.0000000000
0.6725317836 0.0000000000 0.0000000000
0.7155424953 0.0000000000 0.0000000000
0.7585532665 0.0000000000 0.0000000000
0.8044965863 0.0000000000 0.0000000000
0.8504399061 0.0000000000 0.0000000000
0.8983381987 0.0000000000 0.0000000000
0.9472140670 0.0000000000 0.0000000000
0.9980449677 0.0000000000 0.0000000000
0.0000000000 0.1847507358 0.0000000000
0.0000000000 0.1847507358 0.0000000000
0.0000000000 0.1847507358 0.0000000000
0.0000000000 0.1837732196 0.0000000000
0.0000000000 0.1837732196 0.0000000000
0.0000000000 0.1837732196 0.0000000000
0.0000000000 0.1827957034 0.0000000000
0.0596285425 0.1818181872 0.0000000000
0.1104594320 0.1808406711 0.0000000000
0.1505376399 0.1798631549 0.0000000000
0.1857282519 0.1779081076 0.0000000000
0.2179863155 0.1749755591 0.0000000000
0.2482893467 0.1730205268 0.0000000000
0.2785923779 0.1700879782 0.0000000000
0.3069403768 0.1661779135 0.0000000000
0.3343108594 0.1622678339 0.0000000000
0.3616813421 0.1583577693 0.0000000000
0.3890517950 0.1534701884 0.0000000000
0.4183773100 0.1466275603 0.0000000000
0.4506353736 0.1388074309 0.0000000000
0.4848484993 0.1300097704 0.0000000000
0.5210165977 0.1173020527 0.0000000000
0.5581622720 0.1026392952 0.0000000000
0.5982404947 0.0850439891 0.0000000000
0.6392961740 0.0606060624 0.0000000000
0.6823069453 0.0273704790 0.0000000000
0.7253177166 0.0000000000 0.0000000000
0.7702834606 0.0000000000 0.0000000000
0.8162267804 0.0000000000 0.0000000000
0.8631476164 0.0000000000 0.0000000000
0.9110459685 0.0000000000 0.0000000000
0.9599217772 0.0000000000 0.0000000000
1.0000000000 0.0000000000 0.0000000000
0.0000000000 0.2082111388 0.0000000000
0.0000000000 0.2082111388 0.0000000000
0.0000000000 0.2082111388 0.0000000000
0.0000000000 0.2082111388 0.0000000000
0.0000000000 0.2072336227 0.0000000000
0.0000000000 0.2072336227 0.0000000000
0.0000000000 0.2072336227 0.0000000000
0.0166177917 0.2062561065 0.0000000000
0.0879765376 0.2052785903 0.0000000000
0.1358748823 0.2043010741 0.0000000000
0.1749755591 0.2023460418 0.0000000000
0.2101661712 0.2003910094 0.0000000000
0.2424242496 0.1984359771 0.0000000000
0.2737047970 0.1964809448 0.0000000000
0.3030303121 0.1935483813 0.0000000000
0.3313783109 0.1896383166 0.0000000000
0.3597263098 0.1867057681 0.0000000000
0.3870967627 0.1818181872 0.0000000000
0.4183773100 0.1759530753 0.0000000000
0.4516128898 0.1691104621 0.0000000000
0.4868035316 0.1612903178 0.0000000000
0.5239491463 0.1505376399 0.0000000000
0.5630498528 0.1388074309 0.0000000000
0.6041055918 0.1231671572 0.0000000000
0.6461387873 0.1055718511 0.0000000000
0.6901270747 0.0821114406 0.0000000000
0.7350928783 0.0537634417 0.0000000000
0.7810361385 0.0136852395 0.0000000000
0.8279569745 0.0000000000 0.0000000000
0.8758553267 0.0000000000 0.0000000000
0.9247311950 0.0000000000 0.0000000000
0.9736070633 0.0000000000 0.0000000000
1.0000000000 0.0000000000 0.0000000000
0.0000000000 0.2316715568 0.0000000000
0.0000000000 0.2316715568 0.0000000000
0.0000000000 0.2316715568 0.0000000000
0.0000000000 0.2316715568 0.0000000000
0.0000000000 0.2316715568 0.0000000000
0.0000000000 0.2316715568 0.0000000000
0.0000000000 0.2306940407 0.0000000000
0.0000000000 0.2306940407 0.0000000000
0.0537634417 0.2297165245 0.0000000000
0.1153470203 0.2287390083 0.0000000000
0.1603128016 0.2277614921 0.0000000000
0.1994134933 0.2258064449 0.0000000000
0.2336265892 0.2248289287 0.0000000000
0.2668621838 0.2218963802 0.0000000000
0.2971652150 0.2199413478 0.0000000000
0.3274682164 0.2170087993 0.0000000000
0.3558162153 0.2130987346 0.0000000000
0.3851417303 0.2091886550 0.0000000000
0.4164222777 0.2052785903 0.0000000000
0.4506353736 0.1984359771 0.0000000000
0.4877810478 0.1906158328 0.0000000000
0.5259041786 0.1818181872 0.0000000000
0.5659824014 0.1710654944 0.0000000000
0.6080156565 0.1573802531 0.0000000000
0.6520038843 0.1427174956 0.0000000000
0.6969696879 0.1221896410 0.0000000000
0.7438905239 0.1006842628 0.0000000000
0.7908113599 0.0723362640 0.0000000000
0.8387096524 0.0371456519 0.0000000000
0.8875855207 0.0000000000 0.0000000000
0.9364613891 0.0000000000 0.0000000000
0.9872922897 0.0000000000 0.0000000000
1.0000000000 0.0000000000 0.0000000000
0.0000000000 0.2551319599 0.0000000000
0.0000000000 0.2551319599 0.0000000000
0.0000000000 0.2551319599 0.0000000000
0.0000000000 0.2551319599 0.0000000000
0.0000000000 0.2551319599 0.0000000000
0.0000000000 0.2551319599 0.0000000000
0.0000000000 0.2551319599 0.0000000000
0.0000000000 0.2551319599 0.0000000000
0.0000000000 0.2541544437 0.0000000000
0.0879765376 0.2531769276 0.0000000000
0.1427174956 0.2521994114 0.0000000000
0.1857282519 0.2512218952 0.0000000000
0.2228738964 0.2492668629 0.0000000000
0.2570869923 0.2473118305 0.0000000000
0.2903225720 0.2453567982 0.0000000000
0.3206256032 0.2434017658 0.0000000000
0.3509286344 0.2394916862 0.0000000000
0.3812316656 0.2365591377 0.0000000000
0.4144672453 0.2316715568 0.0000000000
0.4486803412 0.2267839760 0.0000000000
0.4858260155 0.2199413478 0.0000000000
0.5259041786 0.2111437023 0.0000000000
0.5669599175 0.2013685256 0.0000000000
0.6109482050 0.1896383166 0.0000000000
0.6559139490 0.1759530753 0.0000000000
0.7028347850 0.1583577693 0.0000000000
0.7507331371 0.1388074309 0.0000000000
0.7996090055 0.1163245365 0.0000000000
0.8494623899 0.0879765376 0.0000000000
0.8993157148 0.0557184741 0.0000000000
0.9491690993 0.0195503421 0.0000000000
1.0000000000 0.0000000000 0.0000000000
1.0000000000 0.0000000000 0.0000000000
0.0000000000 0.2785923779 0.0000000000
0.0000000000 0.2785923779 0.0000000000
0.0000000000 0.2785923779 0.0000000000
0.0000000000 0.2785923779 0.0000000000
0.0000000000 0.2785923779 0.0000000000
0.0000000000 0.2785923779 0.0000000000
0.0000000000 0.2785923779 0.0000000000
0.0000000000 0.2785923779 0.0000000000
0.0000000000 0.2785923779 0.0000000000
0.0410557203 0.2776148617 0.0000000000
0.1173020527 0.2766373456 0.0000000000
0.1671554297 0.2756598294 0.0000000000
0.2101661712 0.2737047970 0.0000000000
0.2473118305 0.2727272809 0.0000000000
0.2815249264 0.2707722485 0.0000000000
0.3137829900 0.2678397000 0.0000000000
0.3440860212 0.2658846676 0.0000000000
0.3763440847 0.2619745731 0.0000000000
0.4095796645 0.2580645084 0.0000000000
0.4457477927 0.2531769276 0.0000000000
0.4838709533 0.2473118305 0.0000000000
0.5249266624 0.2404692024 0.0000000000
0.5679374337 0.2306940407 0.0000000000
0.6129032373 0.2199413478 0.0000000000
0.6598240733 0.2062561065 0.0000000000
0.7077223659 0.1906158328 0.0000000000
0.7565982342 0.1730205268 0.0000000000
0.8074291348 0.1524926722 0.0000000000
0.8582600355 0.1290322542 0.0000000000
0.9090909362 0.1026392952 0.0000000000
0.9608992934 0.0733137801 0.0000000000
1.0000000000 0.0400782004 0.0000000000
1.0000000000 0.0127077224 0.0000000000
0.0000000000 0.3020527959 0.0000000000
0.0000000000 0.3020527959 0.0000000000
0.0000000000 0.3030303121 0.0000000000
0.0000000000 0.3030303121 0.0000000000
0.0000000000 0.3030303121 0.0000000000
0.0000000000 0.3030303121 0.0000000000
0.0000000000 0.3030303121 0.0000000000
0.0000000000 0.3020527959 0.0000000000
0.0000000000 0.3020527959 0.0000000000
0.0000000000 0.3020527959 0.0000000000
0.0840664729 0.3010752797 0.0000000000
0.1456500441 0.3000977635 0.0000000000
0.1925708652 0.2981427312 0.0000000000
0.2336265892 0.2971652150 0.0000000000
0.2707722485 0.2952101529 0.0000000000
0.3040078282 0.2932551205 0.0000000000
0.3372434080 0.2903225720 0.0000000000
0.3695014715 0.2873900235 0.0000000000
0.4046920836 0.2834799588 0.0000000000
0.4418377280 0.2795698941 0.0000000000
0.4809384048 0.2737047970 0.0000000000
0.5229716301 0.2668621838 0.0000000000
0.5669599175 0.2590420246 0.0000000000
0.6129032373 0.2482893467 0.0000000000
0.6608015895 0.2365591377 0.0000000000
0.7106549144 0.2218963802 0.0000000000
0.7624633312 0.2043010741 0.0000000000
0.8142717481 0.1847507358 0.0000000000
0.8660801649 0.1642228812 0.0000000000
0.9188660979 0.1397849470 0.0000000000
0.9726295471 0.1153470203 0.0000000000
1.0000000000 0.0869990215 0.0000000000
1.0000000000 0.0596285425 0.0000000000
0.0000000000 0.3255131841 0.0000000000
0.0000000000 0.3255131841 0.0000000000
0.0000000000 0.3255131841 0.0000000000
0.0000000000 0.3255131841 0.0000000000
0.0000000000 0.3255131841 0.0000000000
0.0000000000 0.3264907002 0.0000000000
0.0000000000 0.3255131841 0.0000000000
0.0000000000 0.3255131841 0.0000000000
0.0000000000 0.3255131841 0.0000000000
0.0000000000 0.3245356679 0.0000000000
0.0136852395 0.3245356679 0.0000000000
0.1163245365 0.3235581517 0.0000000000
0.1720430106 0.3225806355 0.0000000000
0.2170087993 0.3206256032 0.0000000000
0.2580645084 0.3196480870 0.0000000000
0.2942326367 0.3176930547 0.0000000000
0.3274682164 0.3147605062 0.0000000000
0.3616813421 0.3128054738 0.0000000000
0.3978494704 0.3088954091 0.0000000000
0.4359726310 0.3049853444 0.0000000000
0.4770283401 0.3000977635 0.0000000000
0.5200390816 0.2932551205 0.0000000000
0.5640273690 0.2854349911 0.0000000000
0.6119257212 0.2766373456 0.0000000000
0.6617791057 0.2649071217 0.0000000000
0.7126099467 0.2512218952 0.0000000000
0.7653958797 0.2355816215 0.0000000000
0.8191593289 0.2170087993 0.0000000000
0.8739002943 0.1955034286 0.0000000000
0.9276637435 0.1739980429 0.0000000000
0.9824047089 0.1485826075 0.0000000000
1.0000000000 0.1231671572 0.0000000000
1.0000000000 0.0997067466 0.0000000000
0.0000000000 0.3499511182 0.0000000000
0.0000000000 0.3499511182 0.0000000000
0.0000000000 0.3499511182 0.0000000000
0.0000000000 0.3499511182 0.0000000000
0.0000000000 0.3499511182 0.0000000000
0.0000000000 0.3499511182 0.0000000000
0.0000000000 0.3499511182 0.0000000000
0.0000000000 0.3499511182 0.0000000000
0.0000000000 0.3499511182 0.0000000000
0.0000000000 0.3489736021 0.0000000000
0.0000000000 0.3489736021 0.0000000000
0.0654936433 0.3479960859 0.0000000000
0.1436950117 0.3470185697 0.0000000000
0.1964809448 0.3460410535 0.0000000000
0.2414467186 0.3440860212 0.0000000000
0.2795698941 0.3431085050 0.0000000000
0.3157380223 0.3401759565 0.0000000000
0.3519061506 0.3382209241 0.0000000000
0.3890517950 0.3352883756 0.0000000000
0.4291300178 0.3313783109 0.0000000000
0.4701857269 0.3264907002 0.0000000000
0.5151515007 0.3206256032 0.0000000000
0.5610948205 0.3137829900 0.0000000000
0.6099706888 0.3049853444 0.0000000000
0.6608015895 0.2942326367 0.0000000000
0.7135874629 0.2805474102 0.0000000000
0.7683284283 0.2658846676 0.0000000000
0.8230693936 0.2492668629 0.0000000000
0.8797653913 0.2287390083 0.0000000000
0.9354838729 0.2062561065 0.0000000000
0.9921798706 0.1837732196 0.0000000000
1.0000000000 0.1583577693 0.0000000000
1.0000000000 0.1339198500 0.0000000000
0.0000000000 0.3763440847 0.0000000000
0.0000000000 0.3763440847 0.0000000000
0.0000000000 0.3763440847 0.0000000000
0.0000000000 0.3763440847 0.0000000000
0.0000000000 0.3763440847 0.0000000000
0.0000000000 0.3763440847 0.0000000000
0.0000000000 0.3773216009 0.0000000000
0.0000000000 0.3763440847 0.0000000000
0.0000000000 0.3763440847 0.0000000000
0.0000000000 0.3763440847 0.0000000000
0.0000000000 0.3753665686 0.0000000000
0.0000000000 0.3753665686 0.0000000000
0.0977517143 0.3743890524 0.0000000000
0.1661779135 0.3734115362 0.0000000000
0.2170087993 0.3714565039 0.0000000000
0.2619745731 0.3704789877 0.0000000000
0.3000977635 0.3685239553 0.0000000000
0.3372434080 0.3665689230 0.0000000000
0.3782991171 0.3636363745 0.0000000000
0.4193548262 0.3597263098 0.0000000000
0.4623655975 0.3558162153 0.0000000000
