odm/etc/static_lut_bt2020_to_sRGB_mm.cube
LUT_3D_SIZE 5
0.0000000000 0.0000000000 0.0000000000
0.1544477046 0.0000000000 0.0000000000
0.3274682164 0.0000000000 0.0000000000
0.5630498528 0.0000000000 0.0000000000
0.9315738082 0.0000000000 0.0381231681
0.0000000000 0.1378299147 0.0000000000
0.1378299147 0.1309872866 0.0000000000
0.3607038260 0.0977517143 0.0000000000
0.6217008829 0.0000000000 0.0000000000
0.9863147736 0.0000000000 0.0000000000
0.0000000000 0.3255131841 0.0000000000
0.0000000000 0.3255131841 0.0000000000
0.3274682164 0.3147605062 0.0000000000
0.6617791057 0.2649071217 0.0000000000
1.0000000000 0.0997067466 0.0000000000
0.0000000000 0.5913978219 0.0000000000
0.0000000000 0.5923753381 0.0000000000
0.0000000000 0.5904203057 0.0000000000
0.5874877572 0.5669599175 0.0000000000
1.0000000000 0.4447702765 0.0000000000
0.0000000000 1.0000000000 0.0000000000
0.0000000000 1.0000000000 0.0000000000
0.0000000000 1.0000000000 0.0000000000
0.0000000000 1.0000000000 0.0000000000
1.0000000000 0.9892473221 0.0000000000
0.0000000000 0.0000000000 0.1192570850
0.1573802531 0.0000000000 0.1270772219
0.3440860212 0.0000000000 0.1309872866
0.5953079462 0.0000000000 0.1368523985
0.9726295471 0.0000000000 0.1534701884
0.0000000000 0.1388074309 0.1309872866
0.1319648027 0.1319648027 0.1319648027
0.3655914068 0.0957966745 0.1319648027
0.6441837549 0.0000000000 0.1251221895
1.0000000000 0.0000000000 0.1319648027
0.0000000000 0.3313783109 0.1104594320
0.0000000000 0.3294232786 0.1075268835
0.3264907002 0.3176930547 0.0977517143
0.6725317836 0.2649071217 0.0703812316
1.0000000000 0.0048875855 0.0342130996
0.0000000000 0.6011730433 0.0000000000
0.0000000000 0.6011730433 0.0000000000
0.0000000000 0.5972629786 0.0000000000
0.5904203057 0.5718474984 0.0000000000
1.0000000000 0.4428152442 0.0000000000
0.0000000000 1.0000000000 0.0000000000
0.0000000000 1.0000000000 0.0000000000
0.0000000000 1.0000000000 0.0000000000
0.0000000000 1.0000000000 0.0000000000
1.0000000000 0.9931573868 0.0000000000
0.0000000000 0.0000000000 0.2639296055
0.1505376399 0.0000000000 0.2873900235
0.3577712476 0.0000000000 0.2991202474
0.6256109476 0.0000000000 0.3010752797
1.0000000000 0.0000000000 0.2991202474
0.0000000000 0.1368523985 0.2971652150
0.1133919880 0.1290322542 0.3069403768
0.3646138906 0.0899315774 0.3157380223
0.6608015895 0.0000000000 0.3118279576
1.0000000000 0.0000000000 0.2961876690
0.0000000000 0.3313783109 0.3157380223
0.0000000000 0.3304007947 0.3176930547
0.3176930547 0.3176930547 0.3176930547
0.6764418483 0.2639296055 0.3108504415
1.0000000000 0.0000000000 0.2805474102
0.0000000000 0.6070381403 0.2805474102
0.0000000000 0.6060606241 0.2785923779
0.0000000000 0.6011730433 0.2737047970
0.5884652734 0.5747800469 0.2600195408
1.0000000000 0.4398826957 0.2121212184
0.0000000000 1.0000000000 0.0000000000
0.0000000000 1.0000000000 0.0000000000
0.0000000000 1.0000000000 0.0000000000
0.0000000000 1.0000000000 0.0000000000
1.0000000000 1.0000000000 0.0000000000
0.0000000000 0.0000000000 0.4848484993
0.1094819158 0.0000000000 0.5268816948
0.3587487638 0.0000000000 0.5601173043
0.6598240733 0.0000000000 0.5581622720
1.0000000000 0.0000000000 0.5190615654
0.0000000000 0.1319648027 0.5288367271
0.0156402737 0.1153470203 0.5532746911
0.3509286344 0.0547409579 0.5767350793
0.6725317836 0.0000000000 0.5757575631
1.0000000000 0.0000000000 0.5288367271
0.0000000000 0.3264907002 0.5747800469
0.0000000000 0.3235581517 0.5835776925
0.2903225720 0.3118279576 0.5923753381
0.6686217189 0.2551319599 0.5904203057
1.0000000000 0.0000000000 0.5425220132
0.0000000000 0.6050831079 0.5777125955
0.0000000000 0.6050831079 0.5796676278
0.0000000000 0.5992180109 0.5796676278
0.5728250146 0.5728250146 0.5728250146
1.0000000000 0.4369501472 0.5356794000
0.0000000000 1.0000000000 0.4594330490
0.0000000000 1.0000000000 0.4584555328
0.0000000000 1.0000000000 0.4545454681
0.0000000000 1.0000000000 0.4447702765
1.0000000000 1.0000000000 0.4066471159
0.0000000000 0.0537634417 0.9315738082
0.0000000000 0.0000000000 0.9794721603
0.2776148617 0.0000000000 1.0000000000
0.6549364328 0.0000000000 1.0000000000
1.0000000000 0.0000000000 1.0000000000
0.0000000000 0.1515151560 0.9657868743
0.0000000000 0.1045943275 1.0000000000
0.2512218952 0.0000000000 1.0000000000
0.6480938196 0.0000000000 1.0000000000
1.0000000000 0.0000000000 1.0000000000
0.0000000000 0.3137829900 1.0000000000
0.0000000000 0.3040078282 1.0000000000
0.1094819158 0.2766373456 1.0000000000
0.6217008829 0.1964809448 1.0000000000
1.0000000000 0.0000000000 1.0000000000
0.0000000000 0.5826001763 1.0000000000
0.0000000000 0.5816226602 1.0000000000
0.0000000000 0.5757575631 1.0000000000
0.5043988228 0.5513196588 1.0000000000
1.0000000000 0.4125122130 1.0000000000
0.0000000000 1.0000000000 1.0000000000
0.0000000000 1.0000000000 1.0000000000
0.0000000000 1.0000000000 1.0000000000
0.0000000000 1.0000000000 1.0000000000
1.0000000000 1.0000000000 1.0000000000
